groups/cycloalkanes/cyclopropane.svg

<?xml version='1.0' encoding='iso-8859-1'?>
<svg version='1.1' baseProfile='full'
              xmlns='http://www.w3.org/2000/svg'
                      xmlns:rdkit='http://www.rdkit.org/xml'
                      xmlns:xlink='http://www.w3.org/1999/xlink'
                  xml:space='preserve'
width='256px' height='256px' viewBox='0 0 256 256'>
<!-- END OF HEADER -->
<rect style='opacity:1.0;fill:#FFFFFF;stroke:none' width='256.0' height='256.0' x='0.0' y='0.0'> </rect>
<path class='bond-0 atom-0 atom-1' d='M 13.0,128.2 L 136.0,127.8' style='fill:none;fill-rule:evenodd;stroke:#000000;stroke-width:2.0px;stroke-linecap:butt;stroke-linejoin:miter;stroke-opacity:1' />
<path class='bond-1 atom-1 atom-2' d='M 136.0,127.8 L 242.8,188.9' style='fill:none;fill-rule:evenodd;stroke:#000000;stroke-width:2.0px;stroke-linecap:butt;stroke-linejoin:miter;stroke-opacity:1' />
<path class='bond-2 atom-2 atom-3' d='M 242.8,188.9 L 242.3,65.9' style='fill:none;fill-rule:evenodd;stroke:#000000;stroke-width:2.0px;stroke-linecap:butt;stroke-linejoin:miter;stroke-opacity:1' />
<path class='bond-3 atom-3 atom-1' d='M 242.3,65.9 L 136.0,127.8' style='fill:none;fill-rule:evenodd;stroke:#000000;stroke-width:2.0px;stroke-linecap:butt;stroke-linejoin:miter;stroke-opacity:1' />
<path d='M 237.5,185.8 L 242.8,188.9 L 242.8,182.7' style='fill:none;stroke:#000000;stroke-width:2.0px;stroke-linecap:butt;stroke-linejoin:miter;stroke-miterlimit:10;stroke-opacity:1;' />
<path d='M 242.4,72.0 L 242.3,65.9 L 237.0,69.0' style='fill:none;stroke:#000000;stroke-width:2.0px;stroke-linecap:butt;stroke-linejoin:miter;stroke-miterlimit:10;stroke-opacity:1;' />
<path class='atom-1' d='M13.243,189.729 C17.8562,189.712 17.834,183.561 13.2208,183.578 C8.60761,183.594 8.58546,177.443 13.1987,177.427 C17.8119,177.41 17.7897,171.259 13.1765,171.276 C8.56331,171.292 8.54116,165.141 13.1544,165.125 C17.7676,165.108 17.7454,158.957 13.1322,158.974 C8.51901,158.99 8.49687,152.839 13.1101,152.823 C17.7233,152.806 17.7011,146.655 13.0879,146.671 C8.47472,146.688 8.45257,140.537 13.0658,140.52 C17.679,140.504 17.6568,134.353 13.0436,134.369 C8.43042,134.386 8.40827,128.235 13.0215,128.218 C17.6347,128.202 17.6125,122.051 12.9993,122.067 C8.38613,122.084 8.36398,115.933 12.9772,115.916 C17.5904,115.9 17.5682,109.749 12.955,109.765 C8.34183,109.782 8.31968,103.631 12.9329,103.614 C17.5461,103.598 17.5239,97.4468 12.9107,97.4634 C8.29753,97.48 8.27539,91.329 12.8886,91.3124 C17.5018,91.2958 17.4796,85.1448 12.8664,85.1614 C8.25324,85.178 8.23109,79.027 12.8443,79.0104 C17.4575,78.9938 17.4354,72.8428 12.8221,72.8594 C8.20894,72.876 8.18679,66.725 12.8,66.7084' style='fill:none;stroke:#7F7F7F;stroke-width:2.0px;stroke-linecap:butt;stroke-linejoin:miter;stroke-opacity:1' />
</svg>

<svg height="256" viewBox="0 0 256 256" width="256" xmlns="http://www.w3.org/2000/svg"><path d="m0 0h256v256h-256z" fill="#fff"/><g fill="none" stroke-width="2"><path d="m13 128.2 123-.4" stroke="#000"/><path d="m136 127.8 106.8 61.1" stroke="#000"/><path d="m242.8 188.9-.5-123" stroke="#000"/><path d="m242.3 65.9-106.3 61.9" stroke="#000"/><path d="m237.5 185.8 5.3 3.1v-6.2" stroke="#000" stroke-miterlimit="10"/><path d="m242.4 72-.1-6.1-5.3 3.1" stroke="#000" stroke-miterlimit="10"/><path d="m13.243 189.729c4.613-.017 4.591-6.168-.022-6.151-4.613.016-4.636-6.135-.022-6.151 4.613-.017 4.591-6.168-.022-6.151-4.614.016-4.636-6.135-.023-6.151 4.614-.017 4.591-6.168-.022-6.151-4.613.016-4.635-6.135-.022-6.151 4.613-.017 4.591-6.168-.022-6.152-4.613.017-4.635-6.134-.022-6.151 4.613-.016 4.591-6.167-.022-6.151-4.614.017-4.636-6.134-.022-6.151 4.613-.016 4.591-6.167-.023-6.151-4.613.017-4.635-6.134-.022-6.151 4.613-.016 4.591-6.167-.022-6.151-4.613.017-4.635-6.134-.022-6.151 4.613-.016 4.591-6.167-.022-6.151-4.613.017-4.636-6.134-.022-6.151 4.613-.016 4.591-6.167-.023-6.151-4.613.017-4.635-6.134-.022-6.151 4.614-.016 4.591-6.167-.022-6.151-4.613.017-4.635-6.134-.022-6.151" stroke="#7f7f7f"/></g></svg>
